symbols/web/filter_3/materialsymbolsrounded/filter_3_wght600fill1_24px.svg

<svg xmlns="http://www.w3.org/2000/svg" height="24" width="24"><path d="M12.2 14.675h3.125q.975 0 1.588-.613.612-.612.612-1.587v-1.3q0-.65-.425-1.075-.425-.425-1.075-.425.65 0 1.075-.425.425-.425.425-1.075v-1.3q0-.975-.612-1.588-.613-.612-1.588-.612h-3.15q-.45 0-.75.325t-.3.8q0 .45.313.762.312.313.762.313h3.125v1.8H14.05q-.425 0-.7.287-.275.288-.275.713t.288.712q.287.288.712.288h1.25v1.8h-3.15q-.45 0-.75.312-.3.313-.3.763 0 .475.313.8.312.325.762.325ZM8.5 18.15q-1.125 0-1.887-.763-.763-.762-.763-1.887V3.85q0-1.125.763-1.888Q7.375 1.2 8.5 1.2h11.65q1.125 0 1.888.762.762.763.762 1.888V15.5q0 1.125-.762 1.887-.763.763-1.888.763ZM3.85 22.8q-1.125 0-1.887-.762-.763-.763-.763-1.888v-13q0-.55.388-.925.387-.375.937-.375t.938.387q.387.388.387.938V20.15h13q.55 0 .925.388.375.387.375.937t-.387.938q-.388.387-.938.387Z"/></svg>

<svg xmlns="http://www.w3.org/2000/svg" height="24" width="24"><path d="M12.2 14.675H15.325Q16.3 14.675 16.913 14.062Q17.525 13.45 17.525 12.475V11.175Q17.525 10.525 17.1 10.1Q16.675 9.675 16.025 9.675Q16.675 9.675 17.1 9.25Q17.525 8.825 17.525 8.175V6.875Q17.525 5.9 16.913 5.287Q16.3 4.675 15.325 4.675H12.175Q11.725 4.675 11.425 5Q11.125 5.325 11.125 5.8Q11.125 6.25 11.438 6.562Q11.75 6.875 12.2 6.875H15.325Q15.325 6.875 15.325 6.875Q15.325 6.875 15.325 6.875V8.675Q15.325 8.675 15.325 8.675Q15.325 8.675 15.325 8.675H14.05Q13.625 8.675 13.35 8.962Q13.075 9.25 13.075 9.675Q13.075 10.1 13.363 10.387Q13.65 10.675 14.075 10.675H15.325Q15.325 10.675 15.325 10.675Q15.325 10.675 15.325 10.675V12.475Q15.325 12.475 15.325 12.475Q15.325 12.475 15.325 12.475H12.175Q11.725 12.475 11.425 12.787Q11.125 13.1 11.125 13.55Q11.125 14.025 11.438 14.35Q11.75 14.675 12.2 14.675ZM8.5 18.15Q7.375 18.15 6.613 17.387Q5.85 16.625 5.85 15.5V3.85Q5.85 2.725 6.613 1.962Q7.375 1.2 8.5 1.2H20.15Q21.275 1.2 22.038 1.962Q22.8 2.725 22.8 3.85V15.5Q22.8 16.625 22.038 17.387Q21.275 18.15 20.15 18.15ZM3.85 22.8Q2.725 22.8 1.963 22.038Q1.2 21.275 1.2 20.15V7.15Q1.2 6.6 1.588 6.225Q1.975 5.85 2.525 5.85Q3.075 5.85 3.463 6.237Q3.85 6.625 3.85 7.175V20.15Q3.85 20.15 3.85 20.15Q3.85 20.15 3.85 20.15H16.85Q17.4 20.15 17.775 20.538Q18.15 20.925 18.15 21.475Q18.15 22.025 17.763 22.413Q17.375 22.8 16.825 22.8Z"/></svg>
